Obsidian-SemiLight/actions/22s/nroot.svg

<svg viewBox="0 0 22 22" xmlns="http://www.w3.org/2000/svg"><path d="m3 4v3 3h1v-3a2 2 0 0 1 2-2 2 2 0 0 1 2 2v3h1v-3a3 3 0 0 0 -3-3 3 3 0 0 0 -2 .7695312v-.7695312zm13.515625 1.9960938v.0039062l-5.195313 9.001953-2.3164058-4.005859h-.0039062l-6 .003906v1l5.4160156-.003906 2.9062504 5s5.78254-9.9915004 5.771484-10.0000002h2.90625v-1z" fill="#4d4d4d"/></svg>

<svg xmlns="http://www.w3.org/2000/svg" viewBox="0 0 22 22">
  <defs id="defs3051">
    <style type="text/css" id="current-color-scheme">
      .ColorScheme-Text {
        color:#4d4d4d;
      }
      </style>
  </defs>
 <path 
     style="fill:currentColor;fill-opacity:1;stroke:none" 
     d="M 3 4 L 3 7 L 3 10 L 4 10 L 4 7 A 2 2 0 0 1 6 5 A 2 2 0 0 1 8 7 L 8 10 L 9 10 L 9 7 A 3 3 0 0 0 6 4 A 3 3 0 0 0 4 4.7695312 L 4 4 L 3 4 z M 16.515625 5.9960938 L 16.515625 6 L 11.320312 15.001953 L 9.0039062 10.996094 L 9 10.996094 L 3 11 L 3 12 L 8.4160156 11.996094 L 11.322266 16.996094 C 11.322266 16.996094 17.104806 7.0045936 17.09375 6.9960938 L 20 6.9960938 L 20 5.9960938 L 16.515625 5.9960938 z "
	 class="ColorScheme-Text"
     />
</svg>
